X: 034
T: John Barlycorn, a Jig
C: attr. John French (1753-1803)
R: jig
B: "John French Collection", John French ed. p.3 #4
S: http://www.heallan.com/french.asp
Z: 2012 John Chambers <jc:trillian.mit.edu>
M: 12/8
L: 1/8
K: D
|:\
D2d (AG)F ECE G2E | D2d ABc dcB AGF | G2e F2d ECE G2E |[1 Ddf edc dAG FGE :|
[2 Ddf edc dFD D2 |: g | Tf2d (f/g/a)f ge=c efg | Tf2d Adf afd faf |
gbg faf ge=c efg |[1 fdf gec dFD D2 :|[2 fag fge dAG FGE |]

%%sep 2 1 500
%%sep 1 1 500

